svgs/light/mug-saucer.svg

<svg xmlns="http://www.w3.org/2000/svg" viewBox="0 0 640 512"><!-- Font Awesome Pro 6.0.0-alpha2 by @fontawesome - https://fontawesome.com License - https://fontawesome.com/license (Commercial License) --><path d="M528 32H128C110.328 32 96 46.326 96 64V288C96 341.02 138.98 384 192 384H384C437.02 384 480 341.02 480 288V256H528C589.75 256 640 205.75 640 144S589.75 32 528 32ZM448 288C448 323.289 419.291 352 384 352H192C156.711 352 128 323.289 128 288V64H448V288ZM528 224H480V64H528C572.125 64 608 99.875 608 144S572.125 224 528 224ZM560 416C551.156 416 544 423.156 544 432C544 440.812 536.812 448 528 448H48C39.188 448 32 440.812 32 432C32 423.156 24.844 416 16 416S0 423.156 0 432C0 458.469 21.531 480 48 480H528C554.469 480 576 458.469 576 432C576 423.156 568.844 416 560 416Z"/></svg>

<svg xmlns="http://www.w3.org/2000/svg" viewBox="0 0 640 512"><!--! Font Awesome Pro 6.4.0 by @fontawesome - https://fontawesome.com License - https://fontawesome.com/license (Commercial License) Copyright 2023 Fonticons, Inc. --><path d="M416 64h16 16V224v32 32c0 35.3-28.7 64-64 64H192c-35.3 0-64-28.7-64-64V64H416zm64 224V256h48c61.9 0 112-50.1 112-112s-50.1-112-112-112H448 432 416 128c-17.7 0-32 14.3-32 32V288c0 53 43 96 96 96H384c53 0 96-43 96-96zm48-64H480V64h48c44.2 0 80 35.8 80 80s-35.8 80-80 80zM16 448c-8.8 0-16 7.2-16 16s7.2 16 16 16H560c8.8 0 16-7.2 16-16s-7.2-16-16-16H16z"/></svg>
